X: 1623
T: Tobin's Resource
R: hornpipe
B: O'Neill's 1850 #1623
O: Tobin
Z: Michael D. Long, 10/11/98
Z: Michael Hogan
M: C|
L: 1/8
K: D
(AG) | (3(FGA) d>f ecAG | (3(FGA) d>f gecA | (3(FGA) d>B cdec |[1,3 dcdf ecAG :|[2,4 d>f (3(edc) d2 :: (d>e) | f2ff f2ec |
| dfec d2(Ac) | BABc dcdf | edcB ABde || f2ff fgfe | dfec d2(Ac) | (3(Bcd) gf edce | d>f (3(edc) d2 :|
